X:28
T:B028-  The Black Almain
S:via BBBM, from late 17th cent. MS
Q:1/4=120
L:1/4
M:6/4
K:Gdorian
D|D3/2 E/2FG3/2 A/2G|F3/2 E/2 FG2A|B3/2 A/2 GB3/2 c/2D|\
(A3A2):|d|c3/2 B/2AB3/2 c/2d|AAAA2d|\
c3/2 B/2AB3/2 c/2d|(A3A2) ||z1|d2ef3/2 e/2d|c3/2 B/2cd2A|\
dag^f3/2 e/2d|^c3/2 B/2cd2||z1|d2ef3/2 e/2d|\
cdBA2G|BAGBAG|cA2G2||A|BAGBAG|cA2G2|]

